**kern	**kern	**quality
*>head1[head1]	*>head1[head1]	*>head1[head1]
*>head2[head2]	*>head2[head2]	*>head2[head2]
*>solo1[solo1]	*>solo1[solo1]	*>solo1[solo1]
*staff1	*staff1	*staff1
*clefG2	*clefG2	*clefG2
*k[]	*k[]	*k[]
*C:	*C:	*C:
*M4/4	*M4/4	*M4/4
*>head1	*>head1	*>head1
{[8g/	.	.
=1	.	.
!!Head
8g/L]	1C:	:maj
8d#/J	.	.
12e/L	.	.
12g/	.	.
12b/J	.	.
8dd\L	.	.
8cc\	.	.
8b\	.	.
8a\J	.	.
=2||	.	.
8b/L	1E-:	:o7
8a/J	.	.
[4dd\	.	.
8dd\]	.	.
4cc\	.	.
8a/	.	.
=3	.	.
8b\L	1D:	:min
8cc\	.	.
8b\	.	.
8cc\J	.	.
8a/L	.	.
8e/	.	.
8f/	.	.
8g/J}	.	.
=4	.	.
4r	1D:	:min
8r	.	.
{[8b-\	.	.
8b-\]	.	.
4dd-\	.	.
8ee-\	.	.
=5	.	.
4.ee\	2D:	:min
8cc\	.	.
8dd\L	2D:	:dom
8cc\J	.	.
12e/L	.	.
12f/	.	.
12g/J	.	.
=6	.	.
8b-/L	1G:	:dom
8a-/	.	.
8b-/	.	.
8g/J}	.	.
4r	.	.
8r	.	.
{8an/	.	.
=7	.	.
4e/	1C:	:maj
[4e/	.	.
8e/L]	.	.
16g/L	.	.
16f/JJ	.	.
12e/L	.	.
12f/	.	.
12g/J	.	.
=8	.	.
12cc\L	2D:	:min
12dd\	.	.
12cc\J	.	.
8b\L	.	.
8cc\J	.	.
8ee\L	2G:	:dom
8cc\	.	.
8ee-\	.	.
[8b\J	.	.
=9	.	.
8b\L]	1C:	:maj
16cc\L	.	.
16cc#\J	.	.
8dd\	.	.
[8dd\J	.	.
8dd\L]	.	.
16dd-\L	.	.
16cc#\J	.	.
8b\	.	.
8g\J	.	.
=10||	.	.
8e-/L	1E:	:o7
8g-/J	.	.
4b\	.	.
8r	.	.
8a/L	.	.
8cc/	.	.
[8a/J	.	.
=11	.	.
8a/]	1D:	:min
4ee\	.	.
8cc\	.	.
12dd\L	.	.
12ee\	.	.
12dd\J	.	.
8cc/L	.	.
8a/J	.	.
=12	.	.
8g/L	1G:	:dom
8f/	.	.
8g/	.	.
8f/J	.	.
8cc/L	.	.
8a/	.	.
8f/	.	.
[8e/J	.	.
=13	.	.
4e/]	1D:	:min
8r	.	.
8g/	.	.
4d/	.	.
8r	.	.
8e/	.	.
=14	.	.
4f/	1G:	:dom
8r	.	.
[8a-/	.	.
8a-/]	.	.
4ee\	.	.
8dd\	.	.
=15	.	.
8g/L	2C:	:maj
8e/	.	.
8f/	.	.
8g/J	.	.
8f#/L	2E-:	:o7
8e-/	.	.
8f#/	.	.
[8fn/J	.	.
=16	.	.
4f/]}	2D:	:min
4r	.	.
8r	2G:	:dom
*>head2	*>head2	*>head2
{[8g/	.	.
4g/]	.	.
=17	.	.
8cc/L	1C:	:maj
8e-/J	.	.
12en/L	.	.
12g/	.	.
12b/J	.	.
8dd\L	.	.
8cc\	.	.
8b\	.	.
8a\J	.	.
=18||	.	.
8b/L	1E-:	:o7
8a/J	.	.
4dd\	.	.
8r	.	.
4cc\	.	.
8a/	.	.
=19	.	.
8b\L	1D:	:min
8cc\	.	.
8b\	.	.
8cc\J	.	.
8a/L	.	.
8e/	.	.
8f/	.	.
8g/J}	.	.
=20	.	.
4r	1G:	:dom
8r	.	.
{[8b-\	.	.
8b-\]	.	.
4dd-\	.	.
8ee-\	.	.
=21	.	.
4.ee\	2D:	:min
8cc\	.	.
8dd\L	2D:	:dom
8cc\J	.	.
12e/L	.	.
12f/	.	.
12g/J	.	.
=22	.	.
8b-/L	1G:	:dom
8a-/	.	.
8b-/	.	.
8g/J}	.	.
4r	.	.
8r	.	.
{8an/	.	.
=23	.	.
4g/	1C:	:maj
[4g/	.	.
8g/L]	.	.
[8cc/	.	.
8cc/]	.	.
8a/J	.	.
=24	.	.
8b-/L	2G:	:min
8d/	.	.
8f/	.	.
[8a/J	.	.
4a/]	2C:	:dom
8r	.	.
8e/	.	.
=25	.	.
8g/L	1F:	:maj
8f/	.	.
8g/	.	.
[8g/J	.	.
8g/L]	.	.
8f/	.	.
8c/	.	.
8A/J	.	.
=26||	.	.
8e/L	1B-:dom:	:dom:4+
8d/J	.	.
4e/}	.	.
4r	.	.
8r	.	.
{8d/	.	.
=27	.	.
8e/L	1C:	:maj
8g/	.	.
8a/	.	.
8g/J	.	.
8b\L	.	.
8cc\	.	.
8dd\	.	.
[8b\J	.	.
=28	.	.
4b\]	1E-:	:o7
8r	.	.
[8a/	.	.
8a/L]	.	.
8e/	.	.
8f/	.	.
8e/J	.	.
=29	.	.
8g/L	1D:	:min
8f/J	.	.
4cc\	.	.
8r	.	.
4a/	.	.
8f/	.	.
=30	.	.
8e/L	1G:	:dom
8g/	.	.
8f/	.	.
8g/J	.	.
8b-\L	.	.
8g\	.	.
8b-\	.	.
[8bn\J	.	.
=31	.	.
4b\_	1C:	:maj
8b\L]	.	.
16b-\L	.	.
16a\JJ	.	.
4g/}	.	.
8r	.	.
*>solo1	*>solo1	*>solo1
{16d/LL	.	.
!!Solo Start
16e/JJ	.	.
=32	.	.
8f/L	2D:	:min
8g/	.	.
8e/	.	.
8e-/J	.	.
8d/L	2G:	:dom
8c/J	.	.
12B/L	.	.
12d/	.	.
12f/J	.	.
=33	.	.
!!Chorus 1
16a-/LL	1C:	:maj
16b-/J	.	.
[8g/	.	.
8g/]	.	.
16f/L	.	.
16g/JJ	.	.
[4e/	.	.
8e/L]	.	.
16B/L	.	.
16c/JJ	.	.
=34||	.	.
16d/LL	1C:	:maj
16c/	.	.
16B/	.	.
16B-/JJ	.	.
12e/L	.	.
12f/	.	.
12f#/J	.	.
4g/}	.	.
4r	.	.
=35	.	.
4r	1A-:	:dom
8r	.	.
{8cc\	.	.
24b-\LL	.	.
24cc\	.	.
24b-\JJ	.	.
8a/L	.	.
8a-/	.	.
8g-/J	.	.
=36	.	.
8e-/L	1A-:	:dom
8c/J	.	.
24g/LL	.	.
24a-/	.	.
24g/JJ	.	.
8f/	.	.
8d/L	.	.
8B/J	.	.
[4en/	.	.
=37	.	.
8e/L]	1A-:	:dom
16d/L	.	.
16f/J	.	.
8b-/	.	.
8g-/J	.	.
8e-/L	.	.
8c/	.	.
8a-/	.	.
8g-/J	.	.
=38	.	.
8e-/L	2A-:	:dom
8B-/J	.	.
24g/LL	.	.
24a-/	.	.
24g/JJ	.	.
8f/	.	.
8d/L	2G:	:dom
8c/	.	.
8en/	.	.
8g/J	.	.
=39	.	.
8e/L	1C:	:maj
8G/	.	.
8G#/	.	.
[8A/J	.	.
4A/]}	.	.
4r	.	.
=40	.	.
2r	2D:	:dom
2r	2G:	:dom
=41	.	.
{12b\L	1C:	:maj
12cc\	.	.
12cc#\J	.	.
8dd\L	.	.
8b\J	.	.
8ccn/L	.	.
8g/	.	.
8e/	.	.
8c/J	.	.
=42||	.	.
8b/L	1C:	:maj
8g/	.	.
8e/	.	.
8c/J	.	.
24b-\LL	.	.
24bn\	.	.
24b-\JJ	.	.
8g-/L	.	.
8e-/	.	.
8c/J	.	.
=43	.	.
8a/L	1D:	:min
8f/	.	.
8d/	.	.
8A/J	.	.
8e/L	.	.
[8d/J	.	.
4d/]}	.	.
=44	.	.
2r	1D:	:min
8r	.	.
{8d/	.	.
12f/L	.	.
12a/	.	.
12ee/J	.	.
=45	.	.
8gg\L	1D:	:min
8gg-\	.	.
8ff\	.	.
8ee\J	.	.
8dd\L	.	.
8dd-\	.	.
8cc\	.	.
8b-\J	.	.
=46	.	.
24a-/LL	1G:	:dom
24b-/	.	.
24a-/JJ	.	.
8g-/L	.	.
8e-/	.	.
8c/J	.	.
24gn/LL	.	.
24a-/	.	.
24g/JJ	.	.
8f/L	.	.
8d/	.	.
8A-/J	.	.
=47	.	.
8G/L	1C:	:maj
8e/J	.	.
4r	.	.
4r	.	.
8r	.	.
[8d/	.	.
=48	.	.
8d/L]	1G:	:dom
8c/J	.	.
12B/L	.	.
12d/	.	.
12f/J	.	.
12a-/L	.	.
12b-/	.	.
12a-/J	.	.
8g/L	.	.
8f/J	.	.
=49	.	.
8e/L	1C:	:maj
8G/	.	.
8A/	.	.
8B/J	.	.
8d/L	.	.
8c/	.	.
8B/	.	.
8c/J	.	.
=50||	.	.
8e/L	1E-:	:o7
[8dd/J	.	.
2dd\]	.	.
4cc\}	.	.
=51	.	.
4r	1A-:	:maj
{8cc\L	.	.
16ee-\L	.	.
16cc\JJ	.	.
8dd-\L	.	.
8cc\	.	.
8b-\	.	.
8a\J	.	.
=52	.	.
8a-/L	1A-:	:dom
8g-/	.	.
8e-/	.	.
8c/J	.	.
24gn/LL	.	.
24a-/	.	.
24g/JJ	.	.
8f/}	.	.
4r	.	.
=53	.	.
8r	1A-:	:dom
{16ee-\LL	.	.
16dd-\J	.	.
8cc\	.	.
8b-\J	.	.
24a-/LL	.	.
24b-/	.	.
24a-/JJ	.	.
8g-/L	.	.
8e-/	.	.
8c/J	.	.
=54	.	.
24g/LL	1G:	:dom
24a-/	.	.
24g/JJ	.	.
8f/L	.	.
8d/	.	.
8c/J	.	.
12e/L	.	.
12f/	.	.
12f#/J	.	.
8g/L	.	.
8an/J	.	.
=55	.	.
8b-/L	1G:	:min
8d/J	.	.
16f#/LL	.	.
16g/	.	.
16b-/	.	.
16dd/JJ	.	.
16ff\LL	.	.
16dd\	.	.
16ee-\	.	.
16een\JJ	.	.
16cc\LL	.	.
16cc#\	.	.
16dd\	.	.
16ccn\JJ	.	.
=56	.	.
16b-/LL	1C:	:dom
16a/	.	.
16g/	.	.
16f/JJ	.	.
16e/LL	.	.
16g/	.	.
16b-/	.	.
16dd/JJ	.	.
8cc\}	.	.
8r	.	.
8r	.	.
{8a/	.	.
=57	.	.
24b-\LL	1F:	:maj
24cc\	.	.
24b-\JJ	.	.
8a/L	.	.
8cc/	.	.
8a/J	.	.
8g/L	.	.
8f/J	.	.
8r	.	.
[8a-/	.	.
=58||	.	.
24a-/LL]1B-:dom	.	.
24b/	.	.
24a-/JJ	.	.
8g/	.	.
4f/}	.	.
4r	.	.
8r	.	.
{[8e/	.	.
=59	.	.
8e/L]	1C:	:maj
16f/L	.	.
16f#/J	.	.
8g/	.	.
8e/J	.	.
8b/L	.	.
8b-/	.	.
8a/	.	.
8a-/J	.	.
=60	.	.
8g/L	1E-:	:min
8f/	.	.
8e/	.	.
8d/J	.	.
12d-/L	.	.
12g/	.	.
12b-/J	.	.
24a-/LL	.	.
24b-/	.	.
24a-/JJ	.	.
8g-/	.	.
=61	.	.
8e-/L	1D:	:min
8B-/	.	.
8d-/	.	.
8B-/J	.	.
8c/L	.	.
8f/	.	.
8en/	.	.
8c/J	.	.
=62	.	.
8g/L	1G:	:dom
8f/	.	.
8d/	.	.
8A/J	.	.
8e/L	.	.
8G/	.	.
8A/	.	.
8B/J	.	.
=63	.	.
8d/L	1C:	:maj
8B/J	.	.
12c/L	.	.
12e/	.	.
12g/J	.	.
12b\L	.	.
12cc\	.	.
12cc#\J	.	.
8dd\L	.	.
8b\J	.	.
=64	.	.
8cc/L	2D:	:min
8a/	.	.
8f/	.	.
8d/J	.	.
8e-/L	2G:	:dom
[8b/J	.	.
4b\]	.	.
=65	.	.
4a/}	1C:	:maj
4r	.	.
2r	.	.
==	.	.
*-	*-	*-
